packages/icons/assets/Namespace.svg

<svg xmlns="http://www.w3.org/2000/svg" fill="none" viewBox="0 0 16 16"><path fill="#414141" d="M15 15v-2h1v2h-1zm-3 0v-1h2v1h-2zm-4 0v-1h2v1H8zm-4 0v-1h2v1H4zm-4 0v-1h2v1H0zm0-2v-2h1v2H0zm8.66504-2.244V9.673c.60375.29811 1.2649.4619 1.93796.48.772 0 1.1577-.23333 1.157-.7.005-.13619-.0407-.2694-.128-.37399-.1212-.12707-.2636-.23198-.4209-.31-.2646-.13787-.5374-.25911-.8171-.363-.5105-.16244-.98062-.43176-1.37899-.79001-.24731-.28228-.37624-.64904-.35998-1.02399-.00836-.23198.04338-.46218.15027-.66824.10688-.20606.26526-.381.45971-.50778.49924-.30359 1.07849-.44928 1.66199-.418.679-.00327 1.3507.14036 1.969.42102l-.405.944c-.5059-.23196-1.0512-.36568-1.607-.39402-.6613 0-.99234.18834-.99301.56501.00118.0936.0255.18547.07068.26745.04513.08199.10983.15156.18833.20255.3558.21694.7345.39403 1.1291.52801.3727.13132.7289.30511 1.0618.51798.2046.13825.3728.32386.4902.54101.112.22771.1669.4793.1599.73301.0133.25595-.0373.51119-.1472.74269-.11.2315-.276.432-.4828.5833-.5364.3397-1.1663.5014-1.8.462-.65213.0288-1.30221-.0927-1.89999-.355l.00403-.001zm-1.73206.251V7.379c.02743-.36142-.06963-.72134-.27502-1.01999-.11015-.11874-.24597-.21075-.3971-.26898-.15112-.05824-.31351-.08114-.47485-.06702-.2173-.01862-.43595.01423-.63818.09589-.20224.08165-.38243.20983-.52588.37411-.28704.47177-.41588 1.02286-.36792 1.573V11.006H3V5.10599h.98206l.1759.77401h.06506c.18372-.28632.44715-.51262.75794-.651.34124-.15593.71286-.23415 1.08801-.229.29108-.03862.58719-.00903.86487.08643.27768.09545.5293.25413.73511.46356.20604.20961.36057.46431.45117.74392.0906.27962.11488.57648.07092.8671V11.008l-1.25806-.001zM15 11V9h1v2h-1zM0 9V7h1v2H0zm15-2V5h1v2h-1zM0 5V3h1v2H0zm15-2V1h1v2h-1zm-3-1V1h2v1h-2zM8 2V1h2v1H8zM4 2V1h2v1H4zM0 2V1h2v1H0z"/></svg>

<svg width="16" height="16" viewBox="0 0 16 16" fill="none" xmlns="http://www.w3.org/2000/svg">
<path d="M15 15V13H16V15H15ZM12 15V14H14V15H12ZM8 15V14H10V15H8ZM4 15V14H6V15H4ZM0 15V14H2V15H0ZM0 13V11H1V13H0ZM8.66504 10.756V9.673C9.26879 9.97111 9.92994 10.1349 10.603 10.153C11.375 10.153 11.7607 9.91967 11.76 9.453C11.765 9.31681 11.7193 9.1836 11.632 9.07901C11.5108 8.95194 11.3684 8.84703 11.2111 8.76901C10.9465 8.63114 10.6737 8.5099 10.394 8.40601C9.8835 8.24357 9.41338 7.97425 9.01501 7.616C8.7677 7.33372 8.63877 6.96696 8.65503 6.59201C8.64667 6.36003 8.69841 6.12983 8.8053 5.92377C8.91218 5.71771 9.07056 5.54277 9.26501 5.41599C9.76425 5.1124 10.3435 4.96671 10.927 4.99799C11.606 4.99472 12.2777 5.13835 12.896 5.41901L12.491 6.36301C11.9851 6.13105 11.4398 5.99733 10.884 5.96899C10.2227 5.96899 9.89166 6.15733 9.89099 6.534C9.89217 6.6276 9.91649 6.71947 9.96167 6.80145C10.0068 6.88344 10.0715 6.95301 10.15 7.004C10.5058 7.22094 10.8845 7.39803 11.2791 7.53201C11.6518 7.66333 12.008 7.83712 12.3409 8.04999C12.5455 8.18824 12.7137 8.37385 12.8311 8.591C12.9431 8.81871 12.998 9.0703 12.991 9.32401C13.0043 9.57996 12.9537 9.8352 12.8438 10.0667C12.7338 10.2982 12.5678 10.4987 12.361 10.65C11.8246 10.9897 11.1947 11.1514 10.561 11.112C9.90887 11.1408 9.25879 11.0193 8.66101 10.757L8.66504 10.756ZM6.93298 11.007V7.379C6.96041 7.01758 6.86335 6.65766 6.65796 6.35901C6.54781 6.24027 6.41199 6.14826 6.26086 6.09003C6.10974 6.03179 5.94735 6.00889 5.78601 6.02301C5.56871 6.00439 5.35006 6.03724 5.14783 6.1189C4.94559 6.20055 4.7654 6.32873 4.62195 6.49301C4.33491 6.96478 4.20607 7.51587 4.25403 8.06601V11.006H3V5.10599H3.98206L4.15796 5.88H4.22302C4.40674 5.59368 4.67017 5.36738 4.98096 5.229C5.3222 5.07307 5.69382 4.99485 6.06897 5C6.36005 4.96138 6.65616 4.99097 6.93384 5.08643C7.21152 5.18188 7.46314 5.34056 7.66895 5.54999C7.87499 5.7596 8.02952 6.0143 8.12012 6.29391C8.21072 6.57353 8.235 6.87039 8.19104 7.16101V11.008L6.93298 11.007ZM15 11V9H16V11H15ZM0 9V7H1V9H0ZM15 7V5H16V7H15ZM0 5V3H1V5H0ZM15 3V1H16V3H15ZM12 2V1H14V2H12ZM8 2V1H10V2H8ZM4 2V1H6V2H4ZM0 2V1H2V2H0Z" fill="#414141"/>
</svg>
